assets/svg/compass-outline.svg

<svg fill="none" height="24" viewBox="0 0 24 24" width="24" xmlns="http://www.w3.org/2000/svg"><path clip-rule="evenodd" d="m13.4613 22.0005c-.1896 0-.3762-.0375-.5532-.1106-.4444-.1857-.7667-.5772-.8619-1.0486l-1.4814-7.4061-7.40512-1.4814c-.78015-.1568-1.28806-.9186-1.13126-1.6988.09523-.4723.41653-.86478.86191-1.04851l17.11417-7.09634c.177-.07215.3626-.10966.5521-.10966.5868 0 1.1101.34919 1.3343.88981.1471.35592.1471.7484 0 1.10432l-7.0964 17.11508c-.1481.3569-.4252.6339-.782.7811-.177.0731-.3617.1097-.5512.1097zm-10.0168-11.4607 7.8765 1.5757c.2866.0568.5089.279.5656.5656l1.5757 7.8765 7.0954-17.11412z" fill="#222" fill-rule="evenodd"/></svg>

<svg width="24" height="24" viewBox="0 0 24 24" fill="none" xmlns="http://www.w3.org/2000/svg">
<path fill-rule="evenodd" clip-rule="evenodd" d="M13.4613 22.0005C13.2717 22.0005 13.0851 21.963 12.9081 21.8899C12.4637 21.7042 12.1414 21.3127 12.0462 20.8413L10.5648 13.4352L3.15968 11.9538C2.37953 11.797 1.87162 11.0352 2.02842 10.255C2.12365 9.7827 2.44495 9.39022 2.89033 9.20649L20.0045 2.11015C20.1815 2.038 20.3671 2.00049 20.5566 2.00049C21.1434 2.00049 21.6667 2.34968 21.8909 2.8903C22.038 3.24622 22.038 3.6387 21.8909 3.99462L14.7945 21.1097C14.6464 21.4666 14.3693 21.7436 14.0125 21.8908C13.8355 21.9639 13.6508 22.0005 13.4613 22.0005ZM3.4445 10.5398L11.321 12.1155C11.6076 12.1723 11.8299 12.3945 11.8866 12.6811L13.4623 20.5576L20.5577 3.44348L3.4445 10.5398Z" fill="#222222"/>
</svg>
